!!!!SEGMENT: pl-sa--132-a-iii-32--005_haydn-joseph--cassatio-in-b-presto.krn
!!!cenid: 17xx:569
!!!COM: Haydn, Joseph
!!!COM-rismid: pe55803
!!!CDT: 1732/03/31-1809/05/31
!!!CNT: Austrian
!!!OTL: Cassatio in B – Presto
!!!PDT:
!!!AGN: Secular; Cassation
!!!SMS-siglum: PL-SA
!!!SMS-shelfmark: 132/A III 32
!!!SMS-shelfwork: 001-005 M
!!!SMS-variant:
!!!SMS-altvar:
!!!NIFC-rismid: 1001077259
!!!URL-scan: http://bc.bdsandomierz.pl/dlibra/publication/1489/edition/1457/content
!!!ONB-nifc: UWAGA: części Cassatio: Adagio, Menuet, Presto, Menuet, Presto
**kern	**kern	**dynam	**kern	**dynam	**kern
*part4	*part3	*part3	*part2	*part2	*part1
*staff4	*staff3	*	*staff2	*	*staff1
*group1	*group1	*	*group1	*	*group1
*I"Baſso	*I"Viola	*	*I"Violino Secondo	*	*I"Violino Primo
*I'B	*'Va	*	*I'vl 2	*	*I'vl 1
*clefF4	*clefC3	*	*clefG2	*	*clefG2
*k[e-b-]	*k[b-e-]	*	*k[b-e-]	*	*k[e-b-]
*B-:	*B-:	*	*B-:	*	*B-:
*M3/8	*M3/8	*	*M3/8	*	*M3/8
*>[AABB]	*>[AABB]	*	*>[AABB]	*	*>[AABB]
=1	=1	=1	=1	=1	=1
*>A	*>A	*>A	*>A	*>A	*>A
!	!	!	!LO:TX:a:t=problem: kolejność bemoli zawsze: ee-, b- (tylko w pierwszym systemie na odwrót)	!	!
!	!	!	!LO:TX:a:t=problem: caudy normalnie	!	!LO:TX:a:t=problem:16\:global
!LO:TX:a:t=problem:4\:global	!LO:TX:a:t=problem: caudy normalnie	!	!LO:TX:a:t=problem: mixed beam	!	!
!	!LO:TX:a:t=Presto	!	!LO:TX:a:t=Præsto.	!	!LO:TX:a:t=Præsto.
4B-\	4B-/	.	8B-/L	.	(16d/LL
.	.	.	.	.	16f/
!	!	!	!	!	!LO:TX:a:t=problem: wysokość poprawiana
!	!	!	!	!	!LO:TX:a:t=b
.	.	.	8b-\J	.	16b-/)
.	.	.	.	.	16dd'/
!LO:TX:a:t=problem:8\:global	!	!	!	!	!
8F\	8f\	.	16a\LL	.	16cc'/
.	.	.	16cc\JJ	.	32dd'/L
.	.	.	.	.	32ee-/JJJ
=2	=2	=2	=2	=2	=2
8BB-/	8f\	.	8b-\	.	16dd/LL
.	.	.	.	.	(16b-/
8r	8r	.	8r	.	16a/)
.	.	.	.	.	16g`/
8r	8r	.	8r	.	16f`/
.	.	.	.	.	16e-`/JJ
=3	=3	=3	=3	=3	=3
!	!	!	!LO:TX:a:t=problem: mixed beam	!	!
4B-\	4B-/	.	8B-/L	.	16d/LL
.	.	.	.	.	(16f/
.	.	.	8b-\J	.	16b-/)
.	.	.	.	.	16dd`/
8F\	8f\	.	16a\LL	.	16cc`/
.	.	.	16cc\JJ	.	16ee-`/JJ
=4	=4	=4	=4	=4	=4
!LO:TX:a:t=problem:16\:global	!	!	!	!	!LO:TX:a:t=problem:8\:global
16BB-\LL	8f\	.	8b-\	.	8dd\
16G\	.	.	.	.	.
16F\	8r	.	8r	.	8r
16E-\	.	.	.	.	.
16D\	8r	.	8r	.	8r
16C\JJ	.	.	.	.	.
=5	=5	=5	=5	=5	=5
!	!	!	!	!	!LO:TX:a:t=problem:4\:global
4BB-/	4B-/	.	(16d/LL	.	4ff\
.	.	.	16f/	.	.
.	.	.	16b-/)	.	.
.	.	.	16dd`/	.	.
8F\	16A/LL	.	16cc`/	.	8aat\
.	16c/JJ	.	16ee-`/JJ	.	.
=6	=6	=6	=6	=6	=6
4BB-/	8B-/	.	(16dd/LL	.	8bb-\L
.	.	.	16b-/	.	.
.	8r	.	16a/)	.	8ff\
.	.	.	16g`/	.	.
8r	8r	.	16f`/	.	8ff\J
.	.	.	16e-`/JJ	.	.
=7	=7	=7	=7	=7	=7
4B-\	4B-/	.	(16d/LL	.	4ff\
.	.	.	16f/	.	.
.	.	.	16b-/)	.	.
.	.	.	16dd`/	.	.
*	*Xtuplet	*	*	*	*
!	!LO:TX:a:t=problem: triola nieoznaczona	!	!	!	!
8F\	24A/LL	.	16cc`/	.	8aa\
.	24F/	.	.	.	.
.	.	.	16ee-`/JJ	.	.
.	24c/JJ	.	.	.	.
=8	=8	=8	=8	=8	=8
!	!LO:SIC:o=4A	!	!	!	!
8BB-/L	8B-/	.	8dd\	.	16bb-\LL
.	.	.	.	.	(16aa\
8D/	8r	.	8r	.	16gg\)
.	.	.	.	.	16ff`\
8D/J	8r	.	8r	.	16ee-`\
.	.	.	.	.	16dd\JJ
!	!	!	!LO:LB:g=original	!	!
=9	=9	=9	=9	=9	=9
8E-\L	16ee-\LL	.	(16gg\LL	.	8gg\
.	(16dd\	.	16ff\	.	.
8E-\	16cc\)	.	16ee-\)	.	8r
.	16b-`\	.	16dd`\	.	.
8E-\J	16a`\	.	16cc`\	.	8r
.	16g`\JJ	.	16b-`\JJ	.	.
=10	=10	=10	=10	=10	=10
8F\L	8f\	.	8a/	.	16ccc\LL
.	.	.	.	.	(16bb-\
8F\	8r	.	8r	.	16aa\)
.	.	.	.	.	16gg`\
8F\J	8r	.	8r	.	16ff`\
.	.	.	.	.	16ee-`\JJ
!	!	!	!	!	!LO:LB:g=original
=11	=11	=11	=11	=11	=11
8BB-/L	(16dd\LL	.	(16ff\LL	.	8dd\
.	16cc\	.	16ee-\	.	.
8D/	16b-\)	.	16dd\)	.	8r
.	16a`\	.	16cc`\	.	.
8D/J	16g`\	.	16b-`\	.	8r
.	16f`\JJ	.	16a-X`\JJ	.	.
!LO:LB:g=original	!LO:LB:g=original	!	!	!	!
=12	=12	=12	=12	=12	=12
8E-\L	8e-\	.	8g/	.	(16gg\LL
.	.	.	.	.	16ff\
8E-\	8r	.	8r	.	16ee-\)
.	.	.	.	.	16dd`\
8E-\J	8r	.	8r	.	16cc`\
.	.	.	.	.	16b-`\JJ
=13	=13	=13	=13	=13	=13
8F\L	8F/L	.	(16cc/LL	.	16a/LL
.	.	.	16b-/	.	(16g/
8G\	8G/	.	16an/)	.	16f/)
.	.	.	16g`/	.	16e-`/
8A\J	8A/J	.	16f`/	.	16d'/
.	.	.	16e-`/JJ	.	16c'/JJ
=14	=14	=14	=14	=14	=14
!LO:TX:a:t=problem: mixed beam	!	!	!	!	!
8B-\L	8B-/L	.	8d/L	.	8B-/L
16BB-/L	16B-/L	.	16B-/L	.	16B-/L
16C/	16c/	.	16c/	.	16c/
16D/	16d/	.	16d/	.	16d/
16E-/JJ	16e-/JJ	.	16e-/JJ	.	16e-/JJ
=15	=15	=15	=15	=15	=15
8F\L	8f\L	.	8f/L	.	8f/L
16D\L	16d\L	.	16d/L	.	16d/L
16E-\	16e-\	.	16e-/	.	16e-/
16F\	16f\	.	16f/	.	16f/
16G\JJ	16g\JJ	.	16g/JJ	.	16g/JJ
=16	=16	=16	=16	=16	=16
8F\L	8f\L	.	8f/L	.	8f/L
16BB-\L	16B-\L	.	16B-/L	.	16B-/L
16C\	16c\	.	16c/	.	16c/
16D\	16d\	.	16d/	.	16d/
16E-\JJ	16e-\JJ	.	16e-/JJ	.	16e-/JJ
=17	=17	=17	=17	=17	=17
!	!	!	!	!	!LO:SIC:o=4f
4F\	4f\	.	4f/	.	8f/
.	.	.	.	.	8r
8r	8r	.	8r	.	8r
=18	=18	=18	=18	=18	=18
8C/L	(16en\LL	.	(16g\LL	.	4bb-\
.	16g\)	.	16b-\	.	.
8C/	(16e\	.	16een\)	.	.
.	16g\)	.	16b-`\	.	.
8C/J	(16e\	.	16g`\	.	16gg\LL
.	16g\JJ)	.	16b-`\JJ	.	16een\JJ
=19	=19	=19	=19	=19	=19
8C/L	(16f\LL	.	(16a\LL	.	8ff\L
.	16a\	.	16cc\	.	.
8C/	16cc\)	.	16ff\)	.	8cc\J
.	16a`\	.	16cc`\	.	.
8C/J	16g`\	.	16b-`\	.	8r
.	16f`\JJ	.	16a`\JJ	.	.
!	!	!	!LO:LB:g=original	!	!
=20	=20	=20	=20	=20	=20
8C/L	(16en\LL	.	(16g\LL	.	4bb-\
.	16g\)	.	16b-\	.	.
8C/	(16e\	.	16een\)	.	.
.	16g\)	.	16b-`\	.	.
8C/J	(16e\	.	16g`\	.	16gg\LL
.	16g\JJ)	.	16b-`\JJ	.	16een\JJ
!	!LO:LB:g=original	!	!	!	!LO:LB:g=original
=21	=21	=21	=21	=21	=21
8FF/L	(16f\LL	.	(16a\LL	.	8ff\L
.	16a\)	.	16cc\	.	.
8FF/	16cc\	.	16ff\)	.	8cc\J
.	16a'\	.	16cc`\	.	.
8FF/J	16g'\	.	16b-`\	.	8r
.	16f'\JJ	.	16a`\JJ	.	.
=22	=22	=22	=22	=22	=22
(16BB-/LL	(16B-\LL	.	8dd\	.	8b-\
16AA/	16A\	.	.	.	.
16BB-/)	16B-\)	.	4bb-\	.	4ddd\
16C'/	16c`\	.	.	.	.
16D'/	16d`\	.	.	.	.
16En'/JJ	16en`\JJ	.	.	.	.
=23	=23	=23	=23	=23	=23
16F\LL	(16f\LL	.	8aa\	.	8ccc\
16E-\	16en\)	.	.	.	.
16F\	16f\	.	4cc\	.	4a/
16G`\	16g'\	.	.	.	.
16A`\	16a'\	.	.	.	.
16F\JJ	16f`\JJ	.	.	.	.
!LO:LB:g=original	!	!	!	!	!
=24	=24	=24	=24	=24	=24
8B-\L	8b-\L	.	8b-\L	.	8b-\L
8G\	8g\	.	8g\	.	8g\
8c\J	8cc\J	.	8cc\J	.	8cc\J
=25	=25	=25	=25	=25	=25
4F\	4f\	.	4f/	.	4f/
8r	8r	.	8r	.	8r
=26	=26	=26	=26	=26	=26
!LO:N:vis=0	!	!LO:DY:t=p:	!	!	!LO:N:vis=0
2.r	8b-\L	p	8dd\L	p	2.r
.	8a\J	.	8cc\J	.	.
.	8r	.	8r	.	.
=27	=27	=27	=27	=27	=27
.	(8g\L	.	8b-\L	.	.
.	8f\J)	.	8a\J	.	.
.	8r	.	8r	.	.
=28	=28	=28	=28	=28	=28
!	!	!LO:DY:t=fo.	!	!	!
8B-\L	8B-/L	f	8f\L	f	8dd\L
8G\	8G/	.	16dd\L	.	16bb-\L
.	.	.	16b-\	.	16gg\
8c\J	8c/J	.	16a\	.	16ff\
.	.	.	16f\JJ	.	16een\JJ
=29	=29	=29	=29	=29	=29
.	.	.	.	.	8qqee-/
4F\	4F/	.	4a/	.	4ff\
8r	8r	.	8r	.	8r
=30	=30	=30	=30	=30	=30
4.r	8en\L	.	8g/L	.	4.r
.	8f\J	p	8a/J	p	.
.	8r	.	8r	.	.
=31	=31	=31	=31	=31	=31
8r	8g\L	.	8b-\L	.	8r
8r	8f\J	.	8a\J	.	8r
16d\LL	16d\LL	f	16dd\LL	.	16dd\LL
16c\JJ	16c\JJ	.	16cc\JJ	.	16cc\JJ
!	!LO:LB:g=original	!	!	!	!
=32	=32	=32	=32	=32	=32
16B-\LL	16B-/LL	.	16b-\LL	.	16b-\LL
16A\	16A/	.	16a\	.	16a\
16B-\	16B-/	.	16b-\	.	16b-\
16G\J	16G/J	.	16g\J	.	16g\J
8c\J	8c/J	.	8cc\J	.	8cc\J
!	!	!	!LO:LB:g=original	!	!
=33	=33	=33	=33	=33	=33
4F\	4F/	.	4f/	.	4f/
8r	8r	.	8r	.	8r
!	!	!	!	!	!LO:LB:g=original
=34:|!|:	=34:|!|:	=34:|!|:	=34:|!|:	=34:|!|:	=34:|!|:
*>B	*>B	*>B	*>B	*>B	*>B
8F\L	8a\L	p	8ff\L	p	4.ff\
8G\J	8b-\J	.	8een\J	.	.
8r	8r	.	8r	.	.
=35	=35	=35	=35	=35	=35
8A\L	8cc\L	.	8ee-X\L	.	4.ff\
8B-\J	8b-\J	.	8dd\J	.	.
8r	8r	.	8r	.	.
=36	=36	=36	=36	=36	=36
8F\L	(8a\L	.	8cc\L	.	4.ff\
8En\J	8b-\J)	.	8dd-X\J	.	.
8r	8r	.	8r	.	.
=37	=37	=37	=37	=37	=37
8En\L	8b-\L	.	8dd-X\L	.	4.ff\
8F\J	8a\J	.	8cc\J	.	.
8r	8r	.	8r	.	.
=38	=38	=38	=38	=38	=38
8r	8f\L	.	8r	.	8ccc\L
!	!	!	!LO:TX:a:t=problem: mixed beam	!	!
8F\L	8a\J	.	8cc\L	.	8ee-X\J
!	!	!LO:DY:t=f:	!	!	!
8A\J	8r	f	8e-X/J	.	8r
!LO:LB:g=original	!	!	!	!	!
=39	=39	=39	=39	=39	=39
8r	8b-\L	.	8r	.	8dd\L
!	!	!	!LO:TX:a:t=problem: mixed beam	!	!
8B-\L	8dd\J	.	8d/L	.	8bb-\J
8d\J	8r	.	8b-\J	.	8r
=40	=40	=40	=40	=40	=40
8r	8d\L	.	8r	.	8aa\L
8D\L	8f\J	.	8a/L	.	8cc\J
8F#X\J	8r	.	8c/J	.	8r
=41	=41	=41	=41	=41	=41
8r	8g\L	.	8r	.	8b-\L
8G\L	8b-\J	.	8B-/L	.	8gg\J
8B-\J	8r	.	8b-/J	.	8r
=42	=42	=42	=42	=42	=42
8r	8g\L	.	8r	.	8ddd\L
!	!	!	!LO:TX:a:t=problem: mixed beam	!	!
8G\L	8bn\J	.	8dd\L	.	8ff\J
8Bn\J	8r	.	8f/J	.	8r
=43	=43	=43	=43	=43	=43
8r	8cc\L	.	8r	.	8ee-\L
!	!	!	!LO:TX:a:t=problem: mixed beam	!	!
8c\L	8e-\J	.	8e-/L	.	8ccc\J
!	!LO:TX:a:t=problem::urwana kartka	!	!	!	!
8A\J	8ryy	.	8cc\J	.	8r
!	!LO:LB:g=original	!	!	!	!
=44	=44	=44	=44	=44	=44
4B-\	4B-/	.	8f/	.	16dd\LL
.	.	.	.	.	16ff\
.	.	.	16r	.	16bb-\
.	.	.	16dd\LL	.	16ff\
8BB-/	8B-/	.	16cc\	.	16ee-\
.	.	.	16b-\JJ	.	16dd\JJ
!	!	!	!LO:LB:g=original	!	!
=45	=45	=45	=45	=45	=45
.	.	.	.	.	8qqdd/
(16F\LL	(16f\LL	.	8a/	.	8cc\
16G\)	16g\	.	.	.	.
(16F\	16f\	.	8r	.	8r
16E-\)	16e-\)	.	.	.	.
(16D\	16d`\	.	8r	.	8r
16C\JJ)	16c`\JJ	.	.	.	.
=46	=46	=46	=46	=46	=46
!	!LO:TX:a:t=problem: mixed beam	!	!	!	!
4BB-/	8B-/L	.	(16d/LL	.	4ff\
.	.	.	16f/	.	.
.	8b-\J	.	16b-/)	.	.
.	.	.	16dd`/	.	.
8F\	16a\LL	.	16cc`/	.	8aa\
.	16cc\JJ	.	16ee-`/JJ	.	.
!	!	!	!	!	!LO:LB:g=original
=47	=47	=47	=47	=47	=47
8B-\	8b-\	.	(16dd/LL	.	8bb-\L
.	.	.	16b-/	.	.
8r	8r	.	16a/)	.	8ff\
.	.	.	16g`/	.	.
8r	8r	.	16f`/	.	8ff\J
.	.	.	16e-`/JJ	.	.
=48	=48	=48	=48	=48	=48
!	!LO:TX:a:t=problem: mixed beam	!	!	!	!
4B-\	8B-/L	.	(16d/LL	.	4ff\
.	.	.	16f/	.	.
.	8b-\J	.	16b-/)	.	.
.	.	.	16dd`/	.	.
8F\	16a\LL	.	16cc`/	.	8aa\
.	16cc\JJ	.	16ee-`/JJ	.	.
=49	=49	=49	=49	=49	=49
!	!LO:TX:a:t=problem: mixed beam	!	!	!	!
4BB-/	8b-\L	.	8dd\	.	16bb-\LL
.	.	.	.	.	&(16ff\
.	8B-/	.	8r	.	(16ee-\&)
.	.	.	.	.	16dd\)
8D\	8B-/J	.	8r	.	(16cc\
.	.	.	.	.	16b-\JJ)
=50	=50	=50	=50	=50	=50
4E-\	8B-/L	.	(16gg\LL	.	8gg\
.	.	.	16ff\	.	.
.	8c/	.	16ee-\	.	8r
.	.	.	16dd\	.	.
8En\	(<8c/J	.	16cc'\)	.	8r
.	.	.	16b-'\JJ	.	.
=51	=51	=51	=51	=51	=51
4F\	8c\L)	.	8a/	.	16aa\LL
.	.	.	.	.	(16gg\
.	8d\	.	8r	.	16ff\)
.	.	.	.	.	16ee-`\
8F#X\	8d\J	.	8r	.	16dd`\
.	.	.	.	.	16cc`\JJ
!LO:LB:g=original	!	!	!	!	!
=52	=52	=52	=52	=52	=52
4G\	8d`\L	.	16bb-\LL	.	8b-\
.	.	.	16aa\	.	.
.	8e-\	.	16gg\	.	8r
.	.	.	16ff\	.	.
8G\	[8e-\J	.	16ee-\	.	8r
.	.	.	16dd\JJ	.	.
=53	=53	=53	=53	=53	=53
4A\	8e-\L]	.	8cc\	.	16ccc\LL
.	.	.	.	.	(16bb-\
.	8f\	.	8r	.	16aa\)
.	.	.	.	.	16gg`\
!	!	!	!LO:TX:a:t=problem:custos cc	!	!
8A\	8f\J	.	8r	.	16ff`\
.	.	.	.	.	16ee-`\JJ
!	!	!	!LO:LB:g=original	!	!
=54	=54	=54	=54	=54	=54
4B-\	16b-\LL	.	(16ddd\LL	.	8dd\
.	16a\	.	16ccc\	.	.
.	16g\	.	16bb-\)	.	8r
.	16f\	.	16aa`\	.	.
8D\	16e-\	.	16gg`\	.	8r
.	16d\JJ	.	16ff`\JJ	.	.
!	!LO:LB:g=original	!	!	!	!
=55	=55	=55	=55	=55	=55
4E-\	16ee-\LL	.	8ee-\	.	16gg\LL
.	16dd\	.	.	.	(16ff\
.	16cc\	.	8r	.	16ee-\)
.	16b-\	.	.	.	16dd`\
8En\	16a\	.	8r	.	16cc`\
.	16g\JJ	.	.	.	16b-`\JJ
=56	=56	=56	=56	=56	=56
8F\L	8f\L	.	8f`/L	.	8a`\L
16c\L	16c\L	.	(16cc/L	.	(16cc\L
16B-\	16B-\	.	16b-/	.	16b-\
16A\	16A\	.	16a/	.	16a\
16G\JJ	16G\JJ	.	16g/JJ)	.	16g\JJ)
!	!	!	!	!	!LO:LB:g=original
=57	=57	=57	=57	=57	=57
4F\	4F/	.	4f/	.	4f/
8r	8r	.	8r	.	8r
=58	=58	=58	=58	=58	=58
8F\L	(16A/LL	.	16c/LL	.	4ee-\
.	16c/)	.	(16e-/	.	.
8F\	(16A/	.	16a/)	.	.
.	16c/)	.	16e-`/	.	.
8F\J	(16A/	.	16c`/	.	(16cc\LL
.	16c/JJ)	.	16e-`/JJ	.	16a\JJ)
=59	=59	=59	=59	=59	=59
8F\L	(16B-\LL	.	(16d/LL	.	(8b-/L
.	16d\	.	16f/)	.	.
8F\	16f\)	.	16b-/	.	8f/J)
.	16d`\	.	16f`/	.	.
8F\J	16c`\	.	16e-`/	.	8r
.	16B-`\JJ	.	16d`/JJ	.	.
=60	=60	=60	=60	=60	=60
8F\L	(16A/LL	.	(16c/LL	.	4ee-\
.	16c/)	.	16e-/	.	.
8F\	(16A/	.	16g/)	.	.
.	16c/)	.	16e-`/	.	.
8F\J	(16A/	.	16c`/	.	(16cc\LL
.	16c/JJ)	.	16e-`/JJ	.	16a\JJ)
=61	=61	=61	=61	=61	=61
8BB-/L	(16B-\LL	.	(16d/LL	.	8b-\L
.	16d\	.	16f/	.	.
8BB-/	16f\)	.	16b-/)	.	8f\J
.	(16d`\	.	16f`/	.	.
8BB-/J	16c`\)	.	16d`/	.	8r
.	16B-`\JJ	.	16f`/JJ	.	.
=62	=62	=62	=62	=62	=62
(16E-\LL	16e-\LL	.	8f/	.	8e-/
16D\)	16d\	.	.	.	.
16E-`\	16e-\	.	4ee-\	.	4gg\
16F`\	16f\	.	.	.	.
16G`\	16g\	.	.	.	.
16A`\JJ	16a\JJ	.	.	.	.
!	!LO:LB:g=original	!	!	!	!
=63	=63	=63	=63	=63	=63
(16B-\LL	16b-\LL	.	4.dd\	.	8ff\
16A\	16a\	.	.	.	.
16B-\)	16b-\	.	.	.	4bb-\
16c`\	16cc\	.	.	.	.
16d`\	16dd\	.	.	.	.
16B-`\JJ	16b-\JJ	.	.	.	.
!LO:LB:g=original	!	!	!LO:LB:g=original	!	!
=64	=64	=64	=64	=64	=64
*	*	*	*Xtuplet	*	*Xtuplet
!LO:TX:a:t=problem: mixed beam	!	!	!LO:TX:a:t=problem: triola nieoznaczona	!	!LO:TX:a:t=problem: triola nieoznaczona
8E-`\L	8e-\L	.	24ee-\LL	.	(24gg\LL
.	.	.	24dd\	.	24ff\
.	.	.	24cc\JJ	.	24ee-\JJ)
8F\	8f\	.	8b-\L	.	8dd\L
8FF/J	8f\J	.	8a\J	.	8ccT\J
=65	=65	=65	=65	=65	=65
4BB-/	4c/	.	4b-\	.	4b-\
8r	8r	.	8r	.	8r
=66	=66	=66	=66	=66	=66
!	!	!	!	!	!LO:TX:a:t=2
!LO:N:vis=0	!	!	!	!	!LO:N:vis=0
2.r	8e-\L	.	8g/L	p	2.r
.	8d\J	.	8f/J	.	.
.	8r	.	8r	.	.
=67	=67	=67	=67	=67	=67
.	8c/L	.	8e-/L	.	.
.	8B-/J	.	8d/J	.	.
.	8r	.	8r	.	.
=68	=68	=68	=68	=68	=68
!	!	!	!	!LO:DY:t=f	!
8E-\L	8e-\L	.	8B-/L	f	8g/
8C\	8c\	.	(16g/L	.	16ee-\LL
.	.	.	16e-/	.	16cc\
8F\J	8f\J	.	16d/	.	16b-\
.	.	.	16c/JJ)	.	16a\JJ
=69	=69	=69	=69	=69	=69
4G\	4g\	.	4d/	.	4b-\
8r	8r	.	8r	.	8r
!	!	!	!	!	!LO:LB:g=original
=70	=70	=70	=70	=70	=70
!	!	!	!LO:TX:a:t=problem: mixed beam	!	!
4B-\	4B-/	.	8B-/L	p	16d/LL
.	.	.	.	.	(16f/
.	.	.	8b-\J	.	16b-/)
.	.	.	.	.	16dd/
8F\	8f\	.	16a\LL	.	16cc/
.	.	.	16cc\JJ	.	16ee-/JJ
=71	=71	=71	=71	=71	=71
8BB-/	8B-/	.	8b-\	.	(16dd\LL
.	.	.	.	.	16b-\
8r	8r	.	8r	.	16a\)
.	.	.	.	.	16g`\
8r	8r	.	8r	.	16f`\
.	.	.	.	.	16e-`\JJ
=72	=72	=72	=72	=72	=72
!	!	!	!LO:TX:a:t=problem: mixed beam	!	!
!	!	!	!LO:N:vis=16	!	!
4B-\	4B-/	.	8B-/L	.	16d/LL
.	.	.	.	.	(16f/
!	!	!	!LO:N:vis=16	!	!
.	.	.	8b-\J	.	16b-/)
.	.	.	.	.	16dd`/
8F\	8f\	.	16a\LL	.	16cc`/
.	.	.	16cc\JJ	.	16ee-`/JJ
=73	=73	=73	=73	=73	=73
8BB-/	8B-/	.	8b-\	.	8dd\
!	!LO:TX:a:t=problem:urwana kartka	!	!	!	!
8r	8ryy	.	8r	.	8r
8r	8ryy	.	8r	.	8r
!	!LO:LB:g=original	!	!LO:LB:g=original	!	!
=74	=74	=74	=74	=74	=74
*	*	*	*	*	*^
8FF/	8F/	.	8f/ 8cc	f	8aa/	8cc\
8r	8r	.	8r	.	8r	4ryy
8r	8r	.	8r	.	8r	.
=75	=75	=75	=75	=75	=75	=75
*	*	*	*^	*	*	*
8BB-/	8B-/	.	8b-/	8d\	.	8bb-/	8dd\
8r	8r	.	8r	4ryy	.	8r	4ryy
!LO:TX:a:t=Fine	!LO:TX:a:t=Fine	!	!LO:TX:a:t=Il Fine	!	!	!LO:TX:a:t=Fine	!
8r	8r	.	8r	.	.	8r	.
*	*	*	*v	*v	*	*	*
*	*	*	*	*	*v	*v
==:|	==:|	==:|	==:|	==:|	==:|
*-	*-	*-	*-	*-	*-
!!!system-decoration: [(g1)]
!!!RDF**kern: >= above
!!!RDF**kern: <= below
!!!RDF**dynam: p=p.
!!!RDF**dynam: f=f.
!!!ENC: Anna Matuszewska
!!!END: 2020-08-13
